packages/kaspersky-hexa-ui-icons/src/iconsSVGs/24/Help.svg

<svg width="24" height="24" viewBox="0 0 24 24" fill="none" xmlns="http://www.w3.org/2000/svg">
<path d="M21.8349 5.45C21.7049 5.25 20.4249 3.5 16.5049 3.5C14.1749 3.5 12.7849 4.12 12.0049 4.66C11.2249 4.12 9.83488 3.5 7.50488 3.5C3.58488 3.5 2.30488 5.25 2.17488 5.45C2.06488 5.61 2.00488 5.81 2.00488 6V19.5C2.00488 19.85 2.18488 20.17 2.47488 20.35C2.76488 20.53 3.13488 20.55 3.44488 20.4C3.46488 20.4 5.28488 19.5 7.49488 19.5C9.70488 19.5 11.5349 20.39 11.5449 20.39C11.5549 20.39 11.5749 20.39 11.5849 20.4C11.7049 20.46 11.8349 20.49 11.9749 20.49C11.9749 20.49 11.9849 20.49 11.9949 20.49C12.0249 20.49 12.0549 20.49 12.0849 20.48C12.1349 20.48 12.1849 20.48 12.2349 20.46C12.2749 20.46 12.3049 20.44 12.3449 20.42C12.3749 20.41 12.4149 20.4 12.4449 20.39C12.4649 20.39 14.2849 19.49 16.4949 19.49C18.7049 19.49 20.5349 20.38 20.5449 20.38C20.6849 20.45 20.8349 20.49 20.9949 20.49C21.1749 20.49 21.3649 20.44 21.5249 20.34C21.8149 20.16 21.9949 19.84 21.9949 19.49V6C21.9949 5.8 21.9349 5.61 21.8249 5.45H21.8349ZM4.00488 18.05V6.41C4.38488 6.1 5.39488 5.5 7.50488 5.5C9.61488 5.5 10.6349 6.11 11.0049 6.4V18.05C10.1149 17.77 8.88488 17.5 7.50488 17.5C6.12488 17.5 4.89488 17.77 4.00488 18.05ZM20.0049 18.05C19.1149 17.77 17.8849 17.5 16.5049 17.5C15.1249 17.5 13.8949 17.77 13.0049 18.05V6.41C13.3849 6.1 14.3949 5.5 16.5049 5.5C18.6149 5.5 19.6349 6.11 20.0049 6.4V18.05Z" fill="black"/>
</svg>

<svg xmlns="http://www.w3.org/2000/svg" width="24" height="24" fill="none" viewBox="0 0 24 24"><path fill="#000" d="M21.8349 5.45c-.13-.2-1.41-1.95-5.33-1.95-2.33 0-3.72.62-4.5 1.16-.78-.54-2.17-1.16-4.5-1.16-3.92 0-5.2 1.75-5.33 1.95-.11.16-.17.36-.17.55v13.5c0 .35.18.67.47.85s.66.2.97.05c.02 0 1.84-.9 4.05-.9s4.04.89 4.05.89.03 0 .04.01q.18.09.39.09h.02c.03 0 .06 0 .09-.01.05 0 .1 0 .15-.02.04 0 .07-.02.11-.04.03-.01.07-.02.1-.03.02 0 1.84-.9 4.05-.9s4.04.89 4.05.89c.14.07.29.11.45.11.18 0 .37-.05.53-.15.29-.18.47-.5.47-.85V6c0-.2-.06-.39-.17-.55zm-17.83 12.6V6.41c.38-.31 1.39-.91 3.5-.91s3.13.61 3.5.9v11.65c-.89-.28-2.12-.55-3.5-.55s-2.61.27-3.5.55m16 0c-.89-.28-2.12-.55-3.5-.55s-2.61.27-3.5.55V6.41c.38-.31 1.39-.91 3.5-.91s3.13.61 3.5.9z"/></svg>
